X:1
T:The Old Woman Tossed Up
M:6/8
C:
S:Bacon (RKS from Hathaway (RD))
N:
A:Bledington
O:English
R:Jig
%P:A/2.(AB)$^4$(A)
P:A.(AB)4(A)
%:
%:
K:G
I:speed 300
P:A
|: D   | GAB cBc  | ege dBG       | cBc Adc  | BGG  G2 :|\
P:B
|: z   | efg efg  | eag fed       | ded def  | gfe  d2 \
B      | GAB cBc  | ege dBG       | cBc Adc  | BGG  G2 :|
